X:15
T:No 14 Angloise
S:efter Carl Gustaf Sundblad
O:Godegård, Östergötland 
R:Anglaise
B:Carl Gustaf Sundblads notbok
B:http://www.smus.se/earkiv/fmk/browselarge.php?lang=sw&katalogid=M+27&bildnr=00009
B:http://www.smus.se/earkiv/fmk/browselarge.php?lang=sw&katalogid=%C3%96g+20&bildnr=00016
M:2/4
L:1/16
K:C
AB | c2AB c2AB | c2ag fedc | B2GA B2ga | bgeg f2 ::
c2 | a4 agfe | f2c2c2A2 | b4 g2b2 | agfe f2 :|]

